icons/linear-new-office-doc-file-ai.svg

<svg xmlns="http://www.w3.org/2000/svg" width="32px" height="32px" viewBox="0 0 32 32" version="1.1">
    <title>linear-new-office-doc-file-ai</title>
    <g id="linear-new-office-doc-file-ai" stroke-width="1" fill-rule="evenodd">
        <path d="M20,2 C20.2652165,2 20.5195704,2.10535684 20.7071068,2.29289322 L27.415,9 L29,9 C29.5522847,9 30,9.44771525 30,10 L30,23 C30,23.5522847 29.5522847,24 29,24 L28,24 L28,29 C28,29.5522847 27.5522847,30 27,30 L5,30 C4.44771525,30 4,29.5522847 4,29 L4,24 L3,24 C2.44771525,24 2,23.5522847 2,23 L2,10 C2,9.44771525 2.44771525,9 3,9 L4,9 L4,3 C4,2.44771525 4.44771525,2 5,2 L20,2 Z M26,24 L6,24 L6,28 L26,28 L26,24 Z M28,11 L4,11 L4,22 L28,22 L28,11 Z M22.5,12.5 L22.5,14.5 L21,14.5 L21,18.5 L22.5,18.5 L22.5,20.5 L17.5,20.5 L17.5,18.5 L19,18.5 L19,14.5 L17.5,14.5 L17.5,12.5 L22.5,12.5 Z M13.176,12.4996917 L15.399,20.4996917 L13.323,20.4996917 L13.0454821,19.4996917 L10.9544821,19.4996917 L10.676,20.4996917 L8.601,20.4996917 L10.823,12.4996917 L13.176,12.4996917 Z M12,15.736 L11.5094821,17.4996917 L12.4894821,17.4996917 L12,15.736 Z M19.585,4 L6,4 L6,9 L24.585,9 L19.585,4 Z" id="&#24418;&#29366;" fill-rule="nonzero" />
    </g>
</svg>

<svg xmlns="http://www.w3.org/2000/svg" viewBox="0 0 32 32"><path fill="currentColor" d="M20 2a1 1 0 0 1 .707.293L27.415 9H29a1 1 0 0 1 1 1v13a1 1 0 0 1-1 1h-1v5a1 1 0 0 1-1 1H5a1 1 0 0 1-1-1v-5H3a1 1 0 0 1-1-1V10a1 1 0 0 1 1-1h1V3a1 1 0 0 1 1-1zm6 22H6v4h20zm2-13H4v11h24zm-5.5 1.5v2H21v4h1.5v2h-5v-2H19v-4h-1.5v-2zm-9.324 0 2.223 8h-2.076l-.278-1h-2.09l-.279 1H8.601l2.222-8zM12 15.736l-.49 1.764h.98zM19.585 4H6v5h18.585z"/></svg>
